X:1
T:Where Helen Lies
M:4/4
L:1/4
K:Bb
B/2-c/2| d f c A| G3/2 F/2 F- G| B F GF/2-D/2| C3/2 B,/2 B,B/2-c/2|\
 d f c d| G F fg/2-f/2| dB/2-d/2 c3/2 B/2| B3||
